images/facebook-social.svg

<svg width="40" height="40" viewBox="0 0 40 40" fill="none" xmlns="http://www.w3.org/2000/svg">
<path d="M40 20C40 25.5228 37.7614 30.5228 34.1421 34.1421C30.5228 37.7614 25.5228 40 20 40C14.4772 40 9.47715 37.7614 5.85786 34.1421C2.23858 30.5228 0 25.5228 0 20C0 14.4772 2.23858 9.47715 5.85786 5.85786C9.47715 2.23858 14.4772 0 20 0C25.5228 0 30.5228 2.23858 34.1421 5.85786C37.7614 9.47715 40 14.4772 40 20Z" fill="white" fill-opacity="0.1"/>
<g clip-path="url(#clip0_297046_1361)">
<path d="M23.997 11.985H26.188V8.169C25.81 8.117 24.51 8 22.996 8C19.837 8 17.673 9.987 17.673 13.639V17H14.187V21.266H17.673V32H21.947V21.267H25.292L25.823 17.001H21.946V14.062C21.947 12.829 22.279 11.985 23.997 11.985Z" fill="#F4F4FD"/>
</g>
<defs>
<clipPath id="clip0_297046_1361">
<rect width="24" height="24" fill="white" transform="translate(8 8)"/>
</clipPath>
</defs>
</svg>

<svg xmlns="http://www.w3.org/2000/svg" width="40" height="40" fill="none"><path fill="#fff" fill-opacity=".1" d="M40 20a19.937 19.937 0 0 1-5.858 14.142A19.937 19.937 0 0 1 20 40a19.937 19.937 0 0 1-14.142-5.858A19.937 19.937 0 0 1 0 20 19.938 19.938 0 0 1 5.858 5.858 19.938 19.938 0 0 1 20 0a19.937 19.937 0 0 1 14.142 5.858A19.937 19.937 0 0 1 40 20Z"/><g clip-path="url(#a)"><path fill="#F4F4FD" d="M23.997 11.985h2.191V8.169C25.81 8.117 24.51 8 22.996 8c-3.159 0-5.323 1.987-5.323 5.639V17h-3.486v4.266h3.486V32h4.274V21.267h3.345l.531-4.266h-3.877v-2.939c.001-1.233.333-2.077 2.051-2.077Z"/></g><defs><clipPath id="a"><path fill="#fff" d="M8 8h24v24H8z"/></clipPath></defs></svg>
